X:114
%%etbk:tnset id:40,pos:2,rep:3x,ant:
%%etbk:video src:ytube,cde:byYDj7NtO20,desc:
%%etbk:pldat 2015-01-24T13:58,2014-12-07T14:05,2014-05-14T15:43,2014-05-01T19:07,2014-02-07T15:07,2014-02-06T17:46,2013-11-19T16:51,2013-10-04T16:02,2013-10-02T17:29,2013-10-01T17:56,2013-05-21T17:05
T: Toss The Feathers 2
Z: Piano Box Version by Martin Fleischmann
H: Created 2013-02-19 /  Last Modified 2013-02-19
M: 4/4
L: 1/8
R: reel
K: Dmix
|: "D"!1!D2 !3!(3D!2!D!1!D !5!A!1!D!3!F!1!D | !3!ABcA "A"!2!G!1!E !3!(3E!2!E!1!E | "D"!1!D3D !4!A2!2!F!1!A | !3!d!5!fed !2!c!1!A!2!G!1!E |
 "D"!1!D2 !3!(3D!2!D!1!D !5!A!1!D!3!F!1!D | !3!ABcA "A"!2!G!1!E !3!(3E!2!E!1!E | !5!c!3!A!4!B!2!G "D"!1!A3!2!^c |1 !3!d!5!fed !2!c!1!A!2!G!1!E:|2 !3!d!5!fed !2!c!1!A!1!G!2!c||
|: "D"!1!A!3!ddd !1!A!3!ddd | !1!A!3!ddd !4!ed^c!3!d | "A"!2!e!5!aag a3g | !2!e!5!aag !2!e!1!d!2!^c!1!d |
 "A"!2!ef !4!(3gfe !5!aage | !3!f!1!d!2!e!1!d !2!c!1!AA!2!B | !3!c!1!A!2!B!1!G "D"!1!A3 !2!^c |1 !3!d!5!fed !2!c!1!A!1!G!2!c :|2 !3!d!5!fed !2!c!1!A!2!G!1!E |


